static/assets/svg/human/humanClothes/pants1_stickers/pants1_sticker5.svg

<svg class="bottomOverlay" width="86" height="380" viewBox="202.715 584.407 86.593 380.048" xmlns="http://www.w3.org/2000/svg" xmlns:xlink="http://www.w3.org/1999/xlink"><defs><pattern id="c" width="20" height="20" patternUnits="userSpaceOnUse" viewBox="0 0 100 100"><path d="M3.6 60.775C-7.078 16.921 19.285 19.174 33.953 6.035 18 49.768 39.16 11.639 56.717 13.001c-6.821 2.586-17.835 23.682-3.589 16.383 9.446-5.517 15.477-20.358 29.297-9.991-6.931-1.527-24.085 36.182-5.798 33.598 7.421-1.293 14.111-.628 23.567 15.482-6.468-2.878-35.242-2.22-7.361 24.218-12.747-6.837-10.845 16.813-27.26-15.062-12.455-31.218-30.533-44.71-50.189-35.481C7.408 44.622 4.22 52.694 3.6 60.775z" fill-rule="evenodd" stroke="#000" stroke-width="1.795" fill="url(#a)"/><path d="M1.054 72.13C-9.624 50.75 16.739 51.849 31.407 45.443c-15.953 21.321 5.207 2.732 22.764 3.396-6.821 1.261-17.835 11.546-3.589 7.987 9.446-2.689 15.477-9.924 29.297-4.87-6.931-.745-24.085 17.639-5.798 16.379 7.421-.63 14.111-.306 23.567 7.547-6.468-1.403-35.242-1.082-7.361 11.807-12.747-3.333-10.845 8.196-27.26-7.343C50.572 65.127 32.494 58.55 12.838 63.049 4.862 64.255 1.674 68.19 1.054 72.13z" transform="rotate(-33.929 48.11 67.077)" fill-rule="evenodd" stroke="#000" stroke-width="1.795" fill="url(#b)"/></pattern><pattern id="d" patternTransform="matrix(-.0921 0 0 1.40563 232.302 863.758)" xlink:href="#c"/><radialGradient id="a" gradientUnits="userSpaceOnUse" cy="184.75" cx="267.15" gradientTransform="matrix(.8831 0 0 .8024 -178.485 -98.164)" r="59.4"><stop offset="0" stop-color="#ffa762"/><stop offset="1" stop-color="#ff2a2a"/></radialGradient><radialGradient id="b" gradientUnits="userSpaceOnUse" cy="184.75" cx="267.15" gradientTransform="matrix(.8831 0 0 .39118 -181.03 -5.354)" r="59.4"><stop offset="0" stop-color="#ffa762"/><stop offset="1" stop-color="#ff2a2a"/></radialGradient></defs><path d="M210.836 792.118c0 15.899-9.514 40.757-9.514 57.803 0 9.418 1.465 17.872 1.465 26.745 0 16.413 2.194 32.922 2.194 49.176 0 5.993-2.194 11.282-2.194 15.529 0 5.853.731 10.812.731 14.667.974.863 5.123 4.915 5.123 5.176 2.234.863 1.464-.742 1.464-5.176 3.378-.863 8.349-5.177 14.635-5.177 2.407-1.974 7.139-.862 9.514-.862 0-19.489 5.855-40.503 5.855-61.255 0-9.027 2.195-15.744 2.195-22.431v-18.117-11.216c0 4.039.732 7.176.732 10.353v14.666c0 4.402-1.464 9.384-1.464 11.216v29.333c0 6.405 2.927 10.461 2.927 15.529 0 3.796.732 7.138.732 10.353 0 6.103.732 10.388.732 15.529 0 3.7 7.174 3.451 9.512 3.451 2.066 0 6.205.413 7.318 1.726h8.782c.731-4.811 7.317-14.119 7.317-19.843 4.235-10.846-.731-22.086-.731-31.059 0-10.642 2.195-18.132 2.195-27.607 0-3.612 2.219-25.02 2.927-25.02v-14.666c0-5.65-1.463-11.098-1.463-17.255 0-3.637-1.464-4.239-1.464-7.765-.732-1.652-2.195-5.385-2.195-8.627-.733-3.83-2.196-3.39-2.196-6.039-4.316 0-7.31-3.451-7.317-3.451h-9.514c-4.688 0-7.584-.863-10.977-.863-2.348 1.907-7.215.863-9.512.863h-5.855c-4.95 4.973-6.98.863-9.513.863-3.368-.863-4.078-2.589-7.318-2.589-2.708 0-4.39 2.962-4.39 5.177z" class="clothes" stroke="#000" fill="url(#d)"/></svg>

<svg class="bottomOverlay" width="86" height="380" viewBox="202.715 584.407 86.5933 380.048" preserveAspectRatio="xMidYMid meet" xmlns="http://www.w3.org/2000/svg" xmlns:xlink="http://www.w3.org/1999/xlink">
  <defs id="svgEditorDefs">
    <path id="svgEditorClosePathDefs" fill="moccasin" style="stroke-width: 0px; stroke: none; fill-opacity: 1;" class="clothes"/>
    <pattern id="pattern-0" x="0" y="0" width="20" height="20" patternUnits="userSpaceOnUse" viewBox="0 0 100 100">
      <path id="path3980" style="fill-rule: evenodd; stroke: rgb(0, 0, 0); stroke-width: 1.795px; fill: url(#radialGradient3559);" d="M 3.6 60.775 C -7.078 16.921 19.285 19.174 33.953 6.035 C 18 49.768 39.16 11.639 56.717 13.001 C 49.896 15.587 38.882 36.683 53.128 29.384 C 62.574 23.867 68.605 9.026 82.425 19.393 C 75.494 17.866 58.34 55.575 76.627 52.991 C 84.048 51.698 90.738 52.363 100.194 68.473 C 93.726 65.595 64.952 66.253 92.833 92.691 C 80.086 85.854 81.988 109.504 65.573 77.629 C 53.118 46.411 35.04 32.919 15.384 42.148 C 7.408 44.622 4.22 52.694 3.6 60.775 Z"/>
      <path id="path-1" style="fill-rule: evenodd; stroke: rgb(0, 0, 0); stroke-width: 1.795px; fill: url(#gradient-1);" d="M 1.054 72.13 C -9.624 50.75 16.739 51.849 31.407 45.443 C 15.454 66.764 36.614 48.175 54.171 48.839 C 47.35 50.1 36.336 60.385 50.582 56.826 C 60.028 54.137 66.059 46.902 79.879 51.956 C 72.948 51.211 55.794 69.595 74.081 68.335 C 81.502 67.705 88.192 68.029 97.648 75.882 C 91.18 74.479 62.406 74.8 90.287 87.689 C 77.54 84.356 79.442 95.885 63.027 80.346 C 50.572 65.127 32.494 58.55 12.838 63.049 C 4.862 64.255 1.674 68.19 1.054 72.13 Z" transform="matrix(0.829728, -0.558168, 0.558168, 0.829728, -29.248176, 38.275227)"/>
    </pattern>
    <pattern id="pattern-0-0" patternTransform="matrix(-0.092092, 0, 0, 1.405634, 232.30249, 863.758179)" xlink:href="#pattern-0"/>
    <radialGradient id="radialGradient3559" gradientUnits="userSpaceOnUse" cy="184.75" cx="267.15" gradientTransform="matrix(0.883096, 0, 0, 0.802403, -178.484534, -98.163655)" r="59.4">
      <stop id="stop3923" style="stop-color:#ffa762" offset="0"/>
      <stop id="stop3925" style="stop-color:#ff2a2a" offset="1"/>
    </radialGradient>
    <radialGradient id="gradient-1" gradientUnits="userSpaceOnUse" cy="184.75" cx="267.15" gradientTransform="matrix(0.883097, 0, 0, 0.391179, -181.029783, -5.354367)" r="59.4">
      <stop id="stop-1" style="stop-color:#ffa762" offset="0"/>
      <stop id="stop-2" style="stop-color:#ff2a2a" offset="1"/>
    </radialGradient>
  </defs>
  <path d="M 210.836 792.118 C 210.836 808.017 201.322 832.875 201.322 849.921 C 201.322 859.339 202.787 867.793 202.787 876.666 C 202.787 893.079 204.981 909.588 204.981 925.842 C 204.981 931.835 202.787 937.124 202.787 941.371 C 202.787 947.224 203.518 952.183 203.518 956.038 C 204.492 956.901 208.641 960.953 208.641 961.214 C 210.875 962.077 210.105 960.472 210.105 956.038 C 213.483 955.175 218.454 950.861 224.74 950.861 C 227.147 948.887 231.879 949.999 234.254 949.999 C 234.254 930.51 240.109 909.496 240.109 888.744 C 240.109 879.717 242.304 873 242.304 866.313 C 242.304 859.699 242.304 853.947 242.304 848.196 C 242.304 843.882 242.304 840.431 242.304 836.98 C 242.304 841.019 243.036 844.156 243.036 847.333 C 243.036 852.797 243.036 857.398 243.036 861.999 C 243.036 866.401 241.572 871.383 241.572 873.215 C 241.572 878.104 241.572 882.13 241.572 886.156 C 241.572 892.195 241.572 897.372 241.572 902.548 C 241.572 908.953 244.499 913.009 244.499 918.077 C 244.499 921.873 245.231 925.215 245.231 928.43 C 245.231 934.533 245.963 938.818 245.963 943.959 C 245.963 947.659 253.137 947.41 255.475 947.41 C 257.541 947.41 261.68 947.823 262.793 949.136 C 266.208 949.136 268.892 949.136 271.575 949.136 C 272.306 944.325 278.892 935.017 278.892 929.293 C 283.127 918.447 278.161 907.207 278.161 898.234 C 278.161 887.592 280.356 880.102 280.356 870.627 C 280.356 867.015 282.575 845.607 283.283 845.607 C 283.283 839.464 283.283 836.139 283.283 830.941 C 283.283 825.291 281.82 819.843 281.82 813.686 C 281.82 810.049 280.356 809.447 280.356 805.921 C 279.624 804.269 278.161 800.536 278.161 797.294 C 277.428 793.464 275.965 793.904 275.965 791.255 C 271.649 791.255 268.655 787.804 268.648 787.804 C 264.989 787.804 262.062 787.804 259.134 787.804 C 254.446 787.804 251.55 786.941 248.157 786.941 C 245.809 788.848 240.942 787.804 238.645 787.804 C 236.205 787.804 234.497 787.804 232.79 787.804 C 227.84 792.777 225.81 788.667 223.277 788.667 C 219.909 787.804 219.199 786.078 215.959 786.078 C 213.251 786.078 211.569 789.04 211.569 791.255 Z" style="stroke: black; fill: url(#pattern-0-0);" class="clothes"/>
  <g transform="matrix(0.136585, 0, 0, 0.136585, 353.337769, 791.945129)">
    <g id="layer1" transform="matrix(1, 0, 0, 1, 0, -3.452308)">
      <g id="g4615"/>
    </g>
  </g>
</svg>
